X: 40529
T: Tommy Maguire's
R: jig
M: 6/8
K: Dmajor
|:DED ~A3|GFG ABA|DED D2d|=cAG ED=C|
DED AFA|~G3 ABc|d2e fec|1 dec dAF:|2 dec dcA||
d2a gfe|fdB BAB|Ada gfe|fdB A2B|
d2a gfe|fdB ~G3|EFE gfg|edB ABc|
dAa gfe|fdB ABc|def gfe|fdB A2B|
d2a gfe|fdB ~G3|EFE gfg|edB ~A3||

